X: 7
T:Postman's Knock - Adderbury
S:OY(AB)6
N:Tune as played for Grand Union Morris
M:6/8
L:1/8
Q:90
K:D
"A" D | DFG A2 F | GAB A2 A | dAF FED | E3 E2 D | DEF A2 A | GAB A2 F |
Edc BA^G | A4- A2 | AGF Fdd | dDE F2 F | A2 A dcB | c3 B2 A | Add dAF
| EFG | B3 B3 | B3 B2 A | AdF F2 E | D3 D3||
"B"A2 A A2 A | Bcd A3 | dcB A2 F | F2 E F3 | A2 A A2 A | Bcd A3 | dcB A2
 d | d3 c3 | d3-d2||
